Origami/64x64/apps/preferences-activities.svg

<svg xmlns="http://www.w3.org/2000/svg" width="64" height="64" version="1">
 <path style="opacity:0.2" d="m 5.1342311,23.485961 -0.214829,0.371099 c -0.3154241,0.558597 -0.1778373,1.331674 0.3085844,1.749992 l 4.4371761,3.893983 C 9.7103365,28.887678 9.7740462,28.28064 9.8643698,27.676823 L 5.2280037,23.606841 c -0.039198,-0.036 -0.059198,-0.084 -0.093796,-0.122 z m 53.7312909,0 c -0.03458,0.038 -0.05458,0.0874 -0.09374,0.1211 l -4.636566,4.070382 c 0.09026,0.603817 0.15402,1.210855 0.199199,1.824212 l 4.437377,-3.894583 c 0.486356,-0.418318 0.623988,-1.191395 0.308585,-1.749992 L 58.866388,23.485081 Z M 9.6460037,32.001924 c -0.01666,0.332259 -0.042966,0.661698 -0.042966,0.999996 0,0.507438 0.026068,1.005196 0.062498,1.499994 l 0.1992072,-0.17578 C 9.7499493,33.560138 9.6851516,32.786141 9.6459539,32.002144 Z m 44.7077453,0 c -0.03932,0.783877 -0.104139,1.558034 -0.218749,2.32419 l 0.199219,0.17578 c 0.03644,-0.494798 0.0625,-0.992556 0.0625,-1.499994 0,-0.338298 -0.0263,-0.667737 -0.04296,-0.999996 z M 5.1342311,40.517888 c -0.3945801,0.433998 -0.5047744,1.113995 -0.214789,1.627993 l 5.6013179,9.710958 c 0.324763,0.550798 1.055606,0.821717 1.660076,0.613277 l 5.819906,-1.969991 c 1.748732,1.399934 3.742612,2.541789 5.862904,3.370985 l 1.179621,5.992175 C 25.163067,60.490682 25.76003,60.9913 26.398679,61 l 11.202634,0 c 0.638628,-0.008 1.235659,-0.509318 1.355412,-1.136715 l 1.179621,-5.992175 c 2.117893,-0.829996 4.111793,-1.971991 5.859703,-3.371985 l 5.820107,1.968751 c 0.60445,0.20844 1.335312,-0.0624 1.660077,-0.613277 l 5.601318,-9.710958 c 0.290005,-0.513598 0.179799,-1.195135 -0.214829,-1.628893 l -5.386529,9.33976 c -0.324765,0.550877 -1.055627,0.821716 -1.660077,0.613277 l -5.821705,-1.969991 c -1.748732,1.399934 -3.742612,2.537789 -5.862905,3.367185 l -1.17962,5.995974 c -0.118,0.625998 -0.715965,1.127995 -1.353933,1.135995 l -11.202633,0 c -0.63863,-0.0086 -1.235619,-0.509317 -1.355413,-1.136715 l -1.177941,-5.995974 c -2.121892,-0.829996 -4.114992,-1.967991 -5.863704,-3.367985 l -5.820106,1.967991 c -0.60437,0.209999 -1.335133,-0.062 -1.659916,-0.611997 l -5.3865287,-9.33996 z"/>
 <path style="fill:#325f78" d="m 26.268604,4.0024732 c -0.593595,0.0646 -1.116455,0.5502856 -1.224951,1.1374511 l -1.181175,5.9934427 c -2.120516,0.829298 -4.113437,1.968709 -5.862168,3.368713 l -5.817772,-1.968749 c -0.604476,-0.208436 -1.337647,0.0616 -1.662414,0.612483 L 4.9203438,22.85796 c -0.3154276,0.558586 -0.1801932,1.331626 0.3062281,1.749935 l 4.6372175,4.068494 c -0.1631933,1.090911 -0.2624897,2.188543 -0.2624897,3.324912 0,1.136411 0.099196,2.233942 0.2624897,3.324913 l -4.6372175,4.068693 c -0.4863609,0.41831 -0.6216557,1.191349 -0.3062281,1.749934 l 5.5997802,9.712147 c 0.324767,0.550785 1.057938,0.820898 1.662414,0.612463 l 5.818371,-1.968667 c 1.748752,1.399904 3.741653,2.539333 5.862169,3.368711 l 1.181175,5.993442 c 0.1198,0.627386 0.717551,1.128751 1.356186,1.137451 l 11.19936,0 c 0.638636,-0.008 1.236431,-0.510065 1.356166,-1.137451 l 1.181193,-5.993442 c 2.120517,-0.829298 4.113439,-1.968727 5.862171,-3.368711 l 5.818371,1.968667 c 0.604456,0.208435 1.337646,-0.0616 1.662415,-0.612463 l 5.59978,-9.712147 c 0.315407,-0.558585 0.180199,-1.331624 -0.306229,-1.749934 l -4.637218,-4.068693 c 0.1632,-1.090911 0.262471,-2.188342 0.262471,-3.324913 0,-1.136409 -0.0994,-2.233941 -0.262471,-3.324912 l 4.637218,-4.068494 c 0.48636,-0.418309 0.621636,-1.191349 0.306229,-1.749935 l -5.59978,-9.712146 C 53.155346,12.595028 52.422156,12.324895 51.8177,12.533331 L 45.999329,14.502 C 44.249397,13.101036 42.257475,11.961665 40.137558,11.132287 L 38.956365,5.1388443 C 38.836566,4.511461 38.238835,4.0100732 37.600199,4.0013932 l -11.19936,0 c -0.0438,-0.00102 -0.0876,-0.00102 -0.131199,0 z"/>
 <path style="opacity:0.2" d="m 31.999948,21.000103 c 6.627372,0 11.999949,5.372577 11.999949,11.999948 C 43.999897,39.627423 38.62732,45 31.999948,45 25.372577,45 20,39.627423 20,33.000051 20,26.37268 25.372577,21.000103 31.999948,21.000103 Z"/>
 <path style="fill:#ffffff" d="m 32.001333,20.00038 c 6.627372,0 11.999949,5.372577 11.999949,11.999949 0,6.627371 -5.372577,11.999948 -11.999949,11.999948 -6.627371,0 -11.999948,-5.372577 -11.999948,-11.999948 0,-6.627372 5.372577,-11.999949 11.999948,-11.999949 z"/>
 <path style="opacity:0.1;fill:#ffffff" d="M 26.251953 4 C 25.658336 4.0646 25.172953 4.5378225 25.064453 5.125 L 23.876953 11.125 C 21.756362 11.954316 19.750745 13.100066 18.001953 14.5 L 12.189453 12.5625 C 11.584955 12.354061 10.826731 12.574502 10.501953 13.125 L 5.1269531 22.5 C 5.1650331 22.543 5.2080937 22.587201 5.2519531 22.625 L 5.5 22.847656 L 10.501953 14.125 C 10.826731 13.5745 11.584955 13.354061 12.189453 13.5625 L 18.001953 15.5 C 19.750745 14.100066 21.756362 12.954316 23.876953 12.125 L 25.064453 6.125 C 25.172953 5.5378225 25.658336 5.0646 26.251953 5 C 26.295553 4.99898 26.333153 4.99898 26.376953 5 L 37.626953 5 C 38.26561 5.00868 38.819653 5.4976027 38.939453 6.125 L 40.126953 12.125 C 42.247544 12.954396 44.253141 14.100066 46.001953 15.5 L 51.814453 13.5625 C 52.418931 13.354061 53.177174 13.574202 53.501953 14.125 L 58.503906 22.847656 L 58.751953 22.625 C 58.795753 22.5872 58.838953 22.542999 58.876953 22.5 L 53.501953 13.125 C 53.177174 12.574202 52.418931 12.354061 51.814453 12.5625 L 46.001953 14.5 C 44.253141 13.100066 42.247544 11.954396 40.126953 11.125 L 38.939453 5.125 C 38.819653 4.4976027 38.26561 4.00868 37.626953 4 L 26.376953 4 C 26.333153 3.99898 26.295553 3.99898 26.251953 4 z M 4.8125 23.3125 C 4.7788 23.497699 4.77356 23.627361 4.8125 23.8125 C 4.78412 23.654901 4.78902 23.470059 4.8125 23.3125 z M 59.189453 23.3125 C 59.213053 23.470099 59.217853 23.654801 59.189453 23.8125 C 59.228453 23.627301 59.223253 23.497639 59.189453 23.3125 z M 9.6894531 35.5 L 5.2519531 39.375 C 5.2080931 39.4128 5.1651125 39.457 5.1269531 39.5 L 5.5019531 40.15625 L 9.6894531 36.5 C 9.7117293 36.803793 9.7518922 37.097984 9.78125 37.394531 L 9.8769531 37.3125 C 9.7862335 36.706503 9.7345929 36.115597 9.6894531 35.5 z M 54.3125 35.5 C 54.2673 36.115597 54.215599 36.706503 54.125 37.3125 L 54.220703 37.394531 C 54.250069 37.097984 54.290194 36.803793 54.3125 36.5 L 58.5 40.15625 L 58.875 39.5 C 58.8368 39.457 58.7938 39.4128 58.75 39.375 L 54.3125 35.5 z"/>
</svg>

<svg width="64" height="64" version="1" xmlns="http://www.w3.org/2000/svg">
 <path d="m5.1342311 23.485961-0.214829 0.371099c-0.3154241 0.558597-0.1778373 1.331674 0.3085844 1.749992l4.4371761 3.893983c0.0451739-0.613357 0.1088836-1.220395 0.1992072-1.824212l-4.6363661-4.069982c-0.039198-0.036-0.059198-0.084-0.093796-0.122zm53.731291 0c-0.03458 0.038-0.05458 0.0874-0.09374 0.1211l-4.636566 4.070382c0.09026 0.603817 0.15402 1.210855 0.199199 1.824212l4.437377-3.894583c0.486356-0.418318 0.623988-1.191395 0.308585-1.749992l-0.213989-0.371999zm-49.219518 8.515963c-0.01666 0.332259-0.042966 0.661698-0.042966 0.999996 0 0.507438 0.026068 1.005196 0.062498 1.499994l0.1992072-0.17578c-0.1147936-0.765996-0.1795913-1.539993-0.218789-2.32399zm44.707745 0c-0.03932 0.783877-0.104139 1.558034-0.218749 2.32419l0.199219 0.17578c0.03644-0.494798 0.0625-0.992556 0.0625-1.499994 0-0.338298-0.0263-0.667737-0.04296-0.999996zm-49.219518 8.515964c-0.3945801 0.433998-0.5047744 1.113995-0.214789 1.627993l5.6013179 9.710958c0.324763 0.550798 1.055606 0.821717 1.660076 0.613277l5.819906-1.969991c1.748732 1.399934 3.742612 2.541789 5.862904 3.370985l1.179621 5.992175c0.1198 0.627397 0.716763 1.128015 1.355412 1.136715h11.202634c0.638628-8e-3 1.235659-0.509318 1.355412-1.136715l1.179621-5.992175c2.117893-0.829996 4.111793-1.971991 5.859703-3.371985l5.820107 1.968751c0.60445 0.20844 1.335312-0.0624 1.660077-0.613277l5.601318-9.710958c0.290005-0.513598 0.179799-1.195135-0.214829-1.628893l-5.386529 9.33976c-0.324765 0.550877-1.055627 0.821716-1.660077 0.613277l-5.821705-1.969991c-1.748732 1.399934-3.742612 2.537789-5.862905 3.367185l-1.17962 5.995974c-0.118 0.625998-0.715965 1.127995-1.353933 1.135995h-11.202633c-0.63863-0.0086-1.235619-0.509317-1.355413-1.136715l-1.177941-5.995974c-2.121892-0.829996-4.114992-1.967991-5.863704-3.367985l-5.820106 1.967991c-0.60437 0.209999-1.335133-0.062-1.659916-0.611997l-5.3865287-9.33996z" style="opacity:.2"/>
 <path d="m26.268604 4.0024732c-0.593595 0.0646-1.116455 0.5502856-1.224951 1.1374511l-1.181175 5.9934427c-2.120516 0.829298-4.113437 1.968709-5.862168 3.368713l-5.817772-1.968749c-0.604476-0.208436-1.337647 0.0616-1.662414 0.612483l-5.5997802 9.712146c-0.3154276 0.558586-0.1801932 1.331626 0.3062281 1.749935l4.6372175 4.068494c-0.1631933 1.090911-0.2624897 2.188543-0.2624897 3.324912 0 1.136411 0.099196 2.233942 0.2624897 3.324913l-4.6372175 4.068693c-0.4863609 0.41831-0.6216557 1.191349-0.3062281 1.749934l5.5997802 9.712147c0.324767 0.550785 1.057938 0.820898 1.662414 0.612463l5.818371-1.968667c1.748752 1.399904 3.741653 2.539333 5.862169 3.368711l1.181175 5.993442c0.1198 0.627386 0.717551 1.128751 1.356186 1.137451h11.19936c0.638636-8e-3 1.236431-0.510065 1.356166-1.137451l1.181193-5.993442c2.120517-0.829298 4.113439-1.968727 5.862171-3.368711l5.818371 1.968667c0.604456 0.208435 1.337646-0.0616 1.662415-0.612463l5.59978-9.712147c0.315407-0.558585 0.180199-1.331624-0.306229-1.749934l-4.637218-4.068693c0.1632-1.090911 0.262471-2.188342 0.262471-3.324913 0-1.136409-0.0994-2.233941-0.262471-3.324912l4.637218-4.068494c0.48636-0.418309 0.621636-1.191349 0.306229-1.749935l-5.59978-9.712146c-0.324769-0.550786-1.057959-0.820919-1.662415-0.612483l-5.818371 1.968669c-1.749932-1.400964-3.741854-2.540335-5.861771-3.369713l-1.181193-5.9934427c-0.119799-0.6273833-0.71753-1.1287711-1.356166-1.1374511h-11.19936c-0.0438-0.00102-0.0876-0.00102-0.131199 0z" style="fill:#325f78"/>
 <path d="m 31.999948,21.000103 c 6.627372,0 11.999949,5.372577 11.999949,11.999948 C 43.999897,39.627423 38.62732,45 31.999948,45 25.372577,45 20,39.627423 20,33.000051 20,26.37268 25.372577,21.000103 31.999948,21.000103 Z" style="opacity:.2"/>
 <path d="m32.001333 20.00038c6.627372 0 11.999949 5.372577 11.999949 11.999949 0 6.627371-5.372577 11.999948-11.999949 11.999948-6.627371 0-11.999948-5.372577-11.999948-11.999948 0-6.627372 5.372577-11.999949 11.999948-11.999949z" style="fill:#ffffff"/>
 <path d="m26.251953 4c-0.593617 0.0646-1.079 0.5378225-1.1875 1.125l-1.1875 6c-2.120591 0.829316-4.126208 1.975066-5.875 3.375l-5.8125-1.9375c-0.604498-0.208439-1.362722 0.012002-1.6875 0.5625l-5.3749999 9.375c0.03808 0.043 0.0811406 0.087201 0.125 0.125l0.2480469 0.222656 5.001953-8.722656c0.324778-0.5505 1.083002-0.770939 1.6875-0.5625l5.8125 1.9375c1.748792-1.399934 3.754409-2.545684 5.875-3.375l1.1875-6c0.1085-0.5871775 0.593883-1.0604 1.1875-1.125 0.0436-0.00102 0.0812-0.00102 0.125 0h11.25c0.638657 0.00868 1.1927 0.4976027 1.3125 1.125l1.1875 6c2.120591 0.829396 4.126188 1.975066 5.875 3.375l5.8125-1.9375c0.604478-0.208439 1.362721 0.011702 1.6875 0.5625l5.001953 8.722656 0.248047-0.222656c0.0438-0.0378 0.087-0.082001 0.125-0.125l-5.375-9.375c-0.324779-0.550798-1.083022-0.770939-1.6875-0.5625l-5.8125 1.9375c-1.748812-1.399934-3.754409-2.545604-5.875-3.375l-1.1875-6c-0.1198-0.6273973-0.673843-1.11632-1.3125-1.125h-11.25c-0.0438-0.00102-0.0814-0.00102-0.125 0zm-21.439453 19.3125c-0.0337 0.185199-0.03894 0.314861 0 0.5-0.02838-0.157599-0.02348-0.342441 0-0.5zm54.376953 0c0.0236 0.157599 0.0284 0.342301 0 0.5 0.039-0.185199 0.0338-0.314861 0-0.5zm-49.5 12.1875l-4.4375 3.875c-0.04386 0.0378-0.0868406 0.082-0.125 0.125l0.375 0.65625 4.1875-3.65625c0.0222762 0.303793 0.0624391 0.597984 0.0917969 0.894531l0.0957031-0.082031c-0.0907196-0.605997-0.1423602-1.196903-0.1875-1.8125zm44.623047 0c-0.0452 0.615597-0.096901 1.206503-0.1875 1.8125l0.095703 0.082031c0.029366-0.296547 0.069491-0.590738 0.091797-0.894531l4.1875 3.65625 0.375-0.65625c-0.0382-0.043-0.0812-0.0872-0.125-0.125l-4.4375-3.875z" style="fill:#ffffff;opacity:.1"/>
</svg>
